X:9
T:Che a Vau
R:Rigodon
C:Roberto Fresia
A:Piemont (Italie)
S:Che a vau
G:Accordion
%%MIDI program 21 %Accordian
M:2/4
L:1/8
Q:440
K:C
|:[AA,]B[cA,]d|[e2A,2][eA,]e|[d2G,2][g2G,2]|[e2D,2][e2D,2]|[AD,]B[cD,]d|[e2D,2][eD,]d|[c2D,2][B2G,2]|[A2D,2]D,2:|:[cC,]d[eC,]f|[g2G,2][gG,]g| \
[aC,]g[fC,]e|[f2C,2][d2C,2]|[BC,]c[dC,]e|[f2C,2][fC,]f|1[gG,]f[eG,]d|[e2G,2][c2G,2]:|2[eG,]d[cG,]B|[A2A,2]A,2| \
Z:Transcrit par Alex avec l'aide de TablEdit http://www.tabledit.com/

